assets/icons/carriage/PLAETZEFAHRRAD.svg

<svg width="34" height="34" viewBox="0 0 34 34" fill="none" xmlns="http://www.w3.org/2000/svg">
<g clip-path="url(#clip0_185_2)">
<rect width="34" height="34" rx="17" fill="#414141"/>
<path d="M8.65833 26C7.08333 26 5.74653 25.4656 4.64792 24.3969C3.54931 23.3281 3 22.0344 3 20.5156C3 18.9969 3.55454 17.7078 4.66361 16.6484C5.77266 15.5891 7.11396 15.0594 8.6875 15.0594C10.0681 15.0594 11.2785 15.4859 12.3188 16.3391C13.359 17.1922 13.9861 18.275 14.2 19.5875H15.6875L13.2958 13.0625H11.1667V11.375H16.65V13.0625H15.1333L15.8917 15.0594H22.3667L20.2958 9.6875H17.2333V8H20.1208C20.5875 8 20.9813 8.10312 21.3021 8.30937C21.6229 8.51562 21.8611 8.825 22.0167 9.2375L24.2333 15.0594H25.3417C26.9071 15.0594 28.2416 15.5866 29.3449 16.641C30.4483 17.6953 31 18.9705 31 20.4665C31 21.9805 30.453 23.2812 29.3591 24.3687C28.2651 25.4562 26.926 26 25.3417 26C23.9494 26 22.7263 25.55 21.6725 24.65C20.6186 23.75 19.975 22.625 19.7417 21.275H14.2C13.9861 22.625 13.359 23.75 12.3188 24.65C11.2785 25.55 10.0583 26 8.65833 26ZM8.65833 24.3125C9.59167 24.3125 10.4035 24.0219 11.0938 23.4406C11.784 22.8594 12.2458 22.1375 12.4792 21.275H9.00833V19.5875H12.4792C12.2458 18.7437 11.7792 18.0594 11.0792 17.5344C10.3792 17.0094 9.58194 16.7469 8.6875 16.7469C7.59861 16.7469 6.67014 17.1125 5.90208 17.8438C5.13403 18.575 4.75 19.4656 4.75 20.5156C4.75 21.5703 5.12917 22.4668 5.8875 23.2051C6.64583 23.9434 7.56944 24.3125 8.65833 24.3125ZM17.5542 19.5875H19.7708C19.8486 19.1562 19.9993 18.6781 20.2229 18.1531C20.4465 17.6281 20.7528 17.1594 21.1417 16.7469H16.5042L17.5542 19.5875ZM25.3417 24.3125C26.4306 24.3125 27.3542 23.9434 28.1125 23.2051C28.8708 22.4668 29.25 21.5703 29.25 20.5156C29.25 19.4656 28.8708 18.575 28.1125 17.8438C27.3542 17.1125 26.4306 16.7469 25.3417 16.7469H24.875L26.0125 19.925L24.3792 20.4594L23.125 17.3094C22.5611 17.6281 22.1382 18.0781 21.8563 18.6594C21.5743 19.2406 21.4333 19.8594 21.4333 20.5156C21.4333 21.5703 21.8125 22.4668 22.5708 23.2051C23.3292 23.9434 24.2528 24.3125 25.3417 24.3125Z" fill="white"/>
</g>
<defs>
<clipPath id="clip0_185_2">
<rect width="34" height="34" fill="white"/>
</clipPath>
</defs>
</svg>

<svg xmlns="http://www.w3.org/2000/svg" width="34" height="34" fill="none"><g clip-path="url(#a)"><rect width="34" height="34" fill="#414141" rx="17"/><path fill="#fff" d="M8.658 26c-1.575 0-2.911-.534-4.01-1.603C3.549 23.328 3 22.034 3 20.516c0-1.52.555-2.808 1.664-3.868 1.109-1.059 2.45-1.589 4.024-1.589 1.38 0 2.59.427 3.63 1.28 1.041.853 1.668 1.936 1.882 3.248h1.488l-2.392-6.524h-2.13v-1.688h5.484v1.688h-1.517l.759 1.996h6.475l-2.071-5.371h-3.063V8h2.888c.466 0 .86.103 1.181.31.32.206.56.515.715.928l2.216 5.821h1.109c1.565 0 2.9.528 4.003 1.582C30.448 17.695 31 18.971 31 20.467c0 1.514-.547 2.814-1.64 3.902C28.264 25.456 26.925 26 25.341 26c-1.393 0-2.616-.45-3.67-1.35-1.053-.9-1.697-2.025-1.93-3.375H14.2c-.214 1.35-.841 2.475-1.881 3.375-1.04.9-2.26 1.35-3.66 1.35Zm0-1.688c.934 0 1.745-.29 2.436-.871a4.208 4.208 0 0 0 1.385-2.166H9.01v-1.688h3.47a3.748 3.748 0 0 0-1.4-2.053 3.882 3.882 0 0 0-2.392-.787c-1.088 0-2.017.366-2.785 1.097-.768.731-1.152 1.622-1.152 2.672 0 1.054.38 1.95 1.138 2.69.758.737 1.681 1.107 2.77 1.107Zm8.896-4.725h2.217a6.79 6.79 0 0 1 .452-1.434c.224-.525.53-.994.919-1.406h-4.638l1.05 2.84Zm7.788 4.726c1.089 0 2.012-.37 2.77-1.108.759-.738 1.138-1.635 1.138-2.69 0-1.05-.38-1.94-1.137-2.671-.759-.732-1.682-1.097-2.771-1.097h-.467l1.137 3.178-1.633.534-1.254-3.15a3.041 3.041 0 0 0-1.269 1.35 4.198 4.198 0 0 0-.423 1.857c0 1.054.38 1.95 1.138 2.69.758.737 1.682 1.107 2.77 1.107Z"/></g><defs><clipPath id="a"><path fill="#fff" d="M0 0h34v34H0z"/></clipPath></defs></svg>
